img/logo.svg

<svg width="54" height="54" viewBox="0 0 54 54" fill="none" xmlns="http://www.w3.org/2000/svg">
<path d="M25.1049 30.4438C25.5919 30.5385 25.6796 30.3001 25.759 30.131C25.8375 29.9608 26.0708 29.701 26.4111 29.5401C26.7524 29.3781 27.2099 29.105 27.3882 28.942C27.5685 28.779 27.7611 28.5762 28.1707 28.5599C28.5813 28.5426 28.7851 28.3429 28.9134 28.079C29.0449 27.8151 28.9532 27.2608 29.0428 27.0642C29.1325 26.8696 29.3597 26.5242 29.4932 26.2196C29.6287 25.9159 29.5115 25.9414 29.3108 26.029C29.1101 26.1146 28.9348 26.1849 28.8574 26.4549C28.7779 26.7259 28.7056 26.7881 28.4529 26.9725C28.1982 27.1559 28.0138 27.2873 27.7418 27.375C27.4667 27.4616 26.9338 27.6287 26.6332 27.7754C26.353 27.9119 26.0565 28.0749 25.7325 28.2685L23.6642 30.3368C24.0504 30.2971 24.6699 30.3592 25.1049 30.4438Z" fill="#3FA9F5"/>
<path d="M47.5587 9.5061C47.4589 9.58761 47.3855 9.66199 47.3692 9.71497C47.3162 9.90244 47.2877 10.7175 47.0972 11.067C46.9107 11.4165 46.8466 12.0879 46.8445 12.2132C46.8394 12.3375 46.8241 12.5576 46.6978 12.7634C46.5745 12.9682 46.3218 13.2667 46.4135 13.4186C46.5042 13.5704 46.868 13.8424 46.6764 14.038C46.4838 14.2337 46.0172 14.5169 46.1517 14.8063C46.2913 15.0966 46.5093 15.6275 46.4991 15.8445C46.4889 16.0615 46.3575 16.2724 46.493 16.4171C46.6295 16.5618 46.7436 16.8583 46.545 17.1741C46.3463 17.491 45.3733 18.8603 44.7752 19.3606C44.1792 19.8619 43.628 20.4253 43.4578 20.7493C43.2877 21.0733 43.2683 21.3209 43.1827 21.434C43.0981 21.5471 42.8516 21.7213 42.6743 21.8915C42.499 22.0616 42.6366 22.1645 42.7283 22.3153C42.82 22.4671 42.7436 22.7066 42.5989 22.8533C42.4532 23 42.063 23.2099 42.3055 23.3678C42.5469 23.5267 42.6081 23.7978 42.4929 23.921C42.3788 24.0443 42.1261 24.3775 42.1098 24.5008C42.0915 24.6241 41.5291 24.6281 41.2611 24.4458C40.9952 24.2634 40.555 23.973 40.6498 23.8823C40.7446 23.7916 40.9952 23.6592 41.2204 23.378C41.4476 23.0968 41.4201 22.6964 41.5484 22.6515C41.6819 22.6077 41.7155 22.3622 41.4873 22.2053C41.257 22.0484 41.1755 21.8915 41.3976 21.6306C41.6218 21.3698 41.8806 20.8644 41.4934 20.6444C41.1063 20.4243 40.6743 20.5313 40.175 20.6912C39.6737 20.8522 39.7593 20.9684 39.1164 21.5664C38.4704 22.1645 38.7374 22.4936 38.3441 22.9195C37.9529 23.3444 37.9865 23.5573 37.5942 23.9822C37.204 24.4081 36.609 24.784 36.4184 25.1121C36.2269 25.4402 36.446 25.5115 36.8566 25.2558C37.2682 25.001 37.0807 24.9949 37.693 24.9328C38.3074 24.8717 38.3115 24.9766 38.7333 24.784C39.1582 24.5925 39.3854 24.457 39.5667 24.6485C39.7491 24.8411 40.066 25.2598 40.2066 25.592C40.3492 25.9241 40.388 26.3877 40.2718 26.9349C40.1536 27.481 40.2239 27.7408 39.907 28.0729C39.5892 28.403 39.15 28.5722 38.7272 28.7647C38.3044 28.9563 38.4419 28.8707 38.0374 29.0857C37.6329 29.3017 37.5494 29.1438 37.3599 28.8677C37.1683 28.5915 36.5896 28.6985 36.3308 28.9135C36.0741 29.1285 35.1948 30.0699 34.8993 30.237C34.6059 30.4051 33.7989 30.6486 33.533 30.9237C33.2661 31.1998 33.2131 31.4433 33.3955 31.6135C33.5809 31.7857 33.7673 32.395 33.2987 32.6212C32.83 32.8473 32.5559 33.0195 32.4286 33.3344C32.3032 33.6512 31.7164 33.9875 31.3608 34.125C31.0083 34.2646 30.2227 34.5305 29.9405 34.9095C29.6603 35.2875 29.4463 35.6115 29.1152 35.7532C28.7841 35.8968 28.189 36.2728 27.8294 36.3064C27.4697 36.34 27.1834 35.8428 26.3958 35.9844C25.6052 36.1261 24.786 36.3247 24.5996 36.4664C24.4111 36.607 24.2063 36.8902 23.9801 37.0278C23.7519 37.1623 23.5563 37.3864 22.9154 37.4832C22.2786 37.5841 22.086 37.6207 21.6775 37.8551C21.2709 38.0904 20.9143 38.3961 20.5638 38.5357C20.2093 38.6743 19.8252 38.5999 19.654 39.0767C19.4849 39.5535 19.4023 40.1465 19.0804 40.3717C18.7574 40.5989 18.6901 40.7762 18.412 40.821C18.1369 40.8679 18.0737 39.8164 17.3921 39.9305C16.7074 40.0446 16.4823 40.1598 16.2673 40.0681C16.0503 39.9754 15.9524 39.9193 15.6335 39.9804C15.3126 40.0406 14.6035 39.9 14.3793 40.3075C14.1572 40.714 13.8801 40.7589 13.6488 41.3936C13.4124 42.0284 13.3788 42.1282 13.713 42.277C14.0472 42.4278 14.0278 42.5714 13.8424 42.7131C13.6539 42.8537 13.1954 43.1451 13.067 43.4813C12.9376 43.8175 12.9091 44.0223 12.7267 44.2882C12.5443 44.5541 12.1592 44.9189 12.3334 45.0259C12.5076 45.1329 12.7002 45.3886 12.5015 45.467C12.3049 45.5435 11.8892 45.6739 11.5754 46.1517C11.2575 46.6296 10.5708 47.2429 10.2702 47.5975C10.1643 47.7228 10.0593 47.8288 9.94214 47.9246C14.5912 51.7219 20.5282 54.0001 27 54.0001C41.9122 54.0001 54 41.9122 54 27.0001C54 20.3244 51.5721 14.2194 47.5587 9.5061Z" fill="#3FA9F5"/>
<path d="M24.5883 28.6302C24.2888 28.5884 24.028 28.8228 23.9098 28.9318C23.7895 29.0398 23.7162 28.9675 23.4778 28.8931C23.2373 28.8187 22.9918 29.0775 22.9245 29.2752C22.8552 29.4738 22.5037 29.4463 22.3723 29.3444C22.2409 29.2426 21.8883 29.3821 21.6805 29.5217C21.4737 29.6593 21.2872 29.862 21.0692 30.0831C20.8511 30.3022 21.328 30.5151 21.4859 30.6822C21.6367 30.8412 21.8792 30.7637 22.0259 30.7006C22.1736 30.6374 22.4752 30.5549 22.6668 30.4835C22.8573 30.4132 23.1599 30.4275 23.5175 30.3511C23.5562 30.3429 23.6153 30.3419 23.6622 30.3378L25.7305 28.2695C25.7071 28.2838 25.6857 28.295 25.6622 28.3093C25.3097 28.5202 24.8838 28.6699 24.5883 28.6302Z" fill="#70CF29"/>
<path d="M6.18351 43.1307C7.2034 42.7986 8.10408 41.7012 8.46374 41.1113C8.82136 40.5224 9.73324 39.3426 10.3099 38.5876C10.8866 37.8336 12.3772 36.9003 13.6294 36.4877C14.8795 36.0771 16.2876 35.5483 17.008 34.7587C17.7263 33.9691 17.6763 33.7398 18.1491 33.5269C18.6218 33.3149 19.2403 33.0674 19.388 32.8086C19.5337 32.5518 19.5409 31.6909 20.2673 31.4575C20.9938 31.2242 20.9673 31.214 21.0315 30.9104C21.0946 30.6068 20.6688 30.3806 20.4405 30.349C20.2164 30.3185 19.5704 30.4794 19.6601 30.2624C19.7528 30.0464 20.1858 29.4799 20.7431 29.2242C21.2994 28.9674 21.9648 28.5171 22.1298 28.2267C22.2949 27.9374 22.7554 27.4595 23.3117 27.2028C23.87 26.947 24.6362 26.5099 25.0122 26.354C25.3882 26.1971 26.3398 25.8069 26.5425 25.6897C26.7473 25.5715 27.5074 25.3433 27.5441 24.9317C27.5777 24.5201 27.2517 24.4752 27.6286 24.0066C28.0046 23.5369 28.2298 23.4217 28.564 22.8216C28.8951 22.2225 28.9939 22.1094 29.4657 21.8629C29.9374 21.6163 31.0999 20.9011 31.2456 20.9C31.3913 20.899 31.7286 20.8837 31.9935 20.4609C32.2584 20.0381 32.5865 20.0839 32.8473 20.0157C33.1061 19.9474 33.4902 19.2709 33.8183 19.169C34.1433 19.0681 34.2625 18.6677 34.3022 18.3824C34.342 18.0971 34.4938 17.4502 34.8168 17.3697C35.1397 17.2892 35.3557 16.7767 35.4362 16.4975C35.5157 16.2163 35.6206 15.4593 36.0119 15.3482C36.4021 15.2341 36.2666 15.2993 36.4948 15.0181C36.72 14.7359 36.9115 14.2621 37.262 13.9778C37.6166 13.6936 37.7817 13.5489 37.8774 13.1454C37.9763 12.742 38.2493 11.5091 38.7628 10.8092C39.2763 10.1092 39.7858 9.74242 40.3533 9.25743C40.9198 8.77245 40.9361 8.1917 41.257 7.84019C41.5769 7.48766 41.3569 7.26962 41.5555 7.04649C41.7502 6.82336 41.7766 6.63996 41.8133 6.51974C41.851 6.39849 41.6768 6.16721 41.9193 5.90842C42.1618 5.65064 42.3696 5.65879 42.5887 5.43872C42.7354 5.292 42.7038 5.1677 42.7028 5.04543C38.2789 1.87268 32.8605 0 27 0C12.0878 0 0 12.0878 0 27C0 33.1692 2.0734 38.8515 5.55487 43.3977C5.75762 43.2958 5.96751 43.2 6.18351 43.1307Z" fill="#70CF29"/>
</svg>

<svg width="54" height="54" fill="none" xmlns="http://www.w3.org/2000/svg"><path d="M25.105 30.444c.487.095.575-.144.654-.313.078-.17.312-.43.652-.59.341-.163.799-.436.977-.599.18-.163.373-.366.783-.382.41-.017.614-.217.742-.481.132-.264.04-.818.13-1.015.09-.194.317-.54.45-.844.136-.304.019-.279-.182-.191-.2.086-.376.156-.454.426-.08.27-.151.333-.404.518-.255.183-.44.314-.711.402-.275.087-.808.254-1.109.4-.28.137-.576.3-.9.494l-2.069 2.068c.386-.04 1.006.022 1.44.107z" fill="#3FA9F5"/><path d="M47.559 9.506c-.1.082-.173.156-.19.209-.053.187-.081 1.002-.272 1.352-.186.35-.25 1.02-.253 1.146a1.12 1.12 0 01-.146.55c-.123.205-.376.504-.285.656.091.151.455.423.263.619s-.659.479-.524.768c.14.29.357.822.347 1.039-.01.216-.142.427-.006.572a.61.61 0 01.052.757c-.199.317-1.172 1.686-1.77 2.187-.596.5-1.147 1.064-1.317 1.388-.17.324-.19.572-.275.685-.085.113-.331.287-.509.457-.175.17-.037.274.054.424.092.152.016.392-.13.538-.145.147-.535.357-.292.515.24.159.302.43.187.553-.114.123-.367.457-.383.58-.018.123-.58.127-.849-.055-.266-.183-.706-.473-.611-.564.095-.09.345-.223.57-.504.228-.281.2-.682.328-.727.134-.043.167-.289-.06-.446-.231-.157-.313-.313-.09-.574.224-.261.483-.767.095-.987-.387-.22-.819-.113-1.318.047-.501.161-.416.277-1.059.875-.646.599-.379.928-.772 1.354-.391.424-.358.637-.75 1.062-.39.426-.985.802-1.176 1.13-.191.328.028.4.439.144.411-.255.224-.261.836-.323.614-.061.619.044 1.04-.149.425-.191.652-.327.834-.136.182.193.499.612.64.944.142.332.181.796.065 1.343-.118.546-.048.806-.365 1.138-.318.33-.757.5-1.18.692-.423.191-.285.106-.69.32-.404.217-.488.059-.677-.217-.192-.276-.77-.17-1.03.046-.256.214-1.135 1.156-1.43 1.323-.294.168-1.101.412-1.367.687-.267.276-.32.52-.138.69.186.172.372.781-.096 1.007-.469.226-.743.398-.87.713-.126.317-.713.653-1.068.791-.353.14-1.138.406-1.42.785-.28.378-.495.702-.826.843-.33.144-.926.52-1.286.553-.36.034-.646-.463-1.433-.322-.79.142-1.61.34-1.796.482-.189.141-.394.424-.62.562-.228.134-.424.358-1.065.455-.636.101-.829.138-1.238.372-.406.235-.763.541-1.113.68-.355.14-.739.065-.91.542-.17.477-.252 1.07-.574 1.295-.323.227-.39.404-.668.449-.275.047-.338-1.005-1.02-.89-.685.114-.91.229-1.125.137-.217-.093-.315-.149-.633-.088-.321.06-1.03-.08-1.255.328-.222.406-.499.45-.73 1.086-.237.634-.27.734.064.883.334.15.315.294.13.436-.19.14-.648.432-.776.768-.13.337-.158.541-.34.807-.183.266-.568.63-.394.738.175.107.367.363.168.441-.196.077-.612.207-.926.685-.317.478-1.004 1.09-1.305 1.445-.106.126-.21.232-.328.328A26.87 26.87 0 0027 54c14.912 0 27-12.088 27-27a26.89 26.89 0 00-6.441-17.494z" fill="#3FA9F5"/><path d="M24.588 28.63c-.3-.042-.56.193-.678.302-.12.108-.194.036-.432-.039-.24-.074-.486.184-.554.382-.069.199-.42.171-.552.07-.131-.102-.484.037-.692.177-.206.137-.393.34-.61.561-.219.22.258.432.416.6.15.158.393.08.54.018.148-.064.45-.146.64-.218.191-.07.494-.056.851-.132.04-.008.098-.01.145-.013l2.069-2.069-.069.04c-.352.211-.778.36-1.074.321z" fill="#70CF29"/><path d="M6.184 43.13c1.02-.331 1.92-1.429 2.28-2.019.357-.589 1.27-1.768 1.846-2.523.577-.754 2.067-1.688 3.32-2.1 1.25-.41 2.658-.94 3.378-1.73.718-.789.668-1.018 1.141-1.231.473-.212 1.091-.46 1.239-.718.146-.257.153-1.118.88-1.351.726-.234.7-.244.764-.548.063-.303-.363-.53-.591-.561-.225-.03-.87.13-.78-.087.092-.216.525-.782 1.082-1.038.556-.257 1.222-.707 1.387-.997.165-.29.625-.768 1.182-1.024.558-.256 1.324-.693 1.7-.849.376-.157 1.328-.547 1.53-.664.205-.119.965-.347 1.002-.758.034-.412-.292-.457.085-.925.376-.47.6-.585.935-1.185.331-.6.43-.713.902-.96.471-.246 1.634-.96 1.78-.962.145-.001.483-.016.748-.44.264-.422.593-.376.853-.444.26-.069.643-.745.971-.847.325-.1.445-.501.484-.787.04-.285.192-.932.515-1.012.323-.08.539-.593.62-.873.079-.28.184-1.038.575-1.149.39-.114.255-.049.483-.33.225-.282.416-.756.767-1.04.355-.284.52-.43.615-.833.1-.403.372-1.636.886-2.336.513-.7 1.023-1.067 1.59-1.552.567-.485.583-1.065.904-1.417.32-.352.1-.57.299-.794.194-.223.22-.406.257-.526.038-.122-.136-.353.106-.612.243-.257.45-.25.67-.47.146-.146.115-.27.114-.393A26.847 26.847 0 0027 0C12.088 0 0 12.088 0 27c0 6.17 2.073 11.852 5.555 16.398.203-.102.413-.198.629-.267z" fill="#70CF29"/></svg>
